img/SliderPhoto/arrowleft.svg

<svg id="Capa_1" enable-background="new 0 0 512 512" height="512" viewBox="0 0 512 512" width="512" xmlns="http://www.w3.org/2000/svg"><path d="m374.667 256c0 11.046-8.954 20-20 20h-148.383l44.524 44.524c7.811 7.811 7.811 20.475 0 28.285-7.812 7.811-20.474 7.809-28.284 0l-78.667-78.667c-7.822-7.824-7.802-20.481 0-28.285l78.667-78.667c7.811-7.809 20.474-7.81 28.284 0 7.811 7.811 7.811 20.475 0 28.285l-44.524 44.525h148.383c11.046 0 20 8.954 20 20zm137.333-107.628v215.256c0 68.38-46.371 103.106-49.378 107.367-26.44 26.443-61.598 41.005-98.994 41.005h-215.256c-37.396 0-72.553-14.563-98.995-41.006-2.976-4.217-49.377-38.98-49.377-107.366v-215.256c0-68.378 46.373-103.108 49.378-107.367 26.441-26.442 61.599-41.005 98.994-41.005h215.256c37.396 0 72.554 14.563 98.995 41.006 2.972 4.212 49.377 38.979 49.377 107.366zm-40 0c0-50.109-34.621-74.853-37.662-79.082-18.887-18.889-43.999-29.29-70.71-29.29h-215.256c-26.711 0-51.823 10.402-70.71 29.289-3.152 4.382-37.662 28.708-37.662 79.083v215.256c0 50.109 34.615 74.847 37.661 79.082 18.888 18.888 44 29.29 70.711 29.29h215.256c26.711 0 51.823-10.401 70.71-29.289 3.151-4.382 37.662-28.708 37.662-79.083z"/></svg>

<?xml version="1.0" encoding="utf-8"?>
<!-- Generator: Adobe Illustrator 24.1.2, SVG Export Plug-In . SVG Version: 6.00 Build 0)  -->
<svg version="1.1" id="Capa_1" xmlns="http://www.w3.org/2000/svg" xmlns:xlink="http://www.w3.org/1999/xlink" x="0px" y="0px"
	 viewBox="0 0 512 512" style="enable-background:new 0 0 512 512;" xml:space="preserve">
<style type="text/css">
	.st0{fill:#6CA09F;}
</style>
<path class="st0" d="M374.7,256c0,11-9,20-20,20H206.3l44.5,44.5c7.8,7.8,7.8,20.5,0,28.3c-7.8,7.8-20.5,7.8-28.3,0l-78.7-78.7
	c-7.8-7.8-7.8-20.5,0-28.3l78.7-78.7c7.8-7.8,20.5-7.8,28.3,0c7.8,7.8,7.8,20.5,0,28.3L206.3,236h148.4
	C365.7,236,374.7,245,374.7,256z M512,148.4v215.3c0,68.4-46.4,103.1-49.4,107.4c-26.4,26.4-61.6,41-99,41H148.4
	c-37.4,0-72.6-14.6-99-41C46.4,466.8,0,432,0,363.6V148.4C0,80,46.4,45.3,49.4,41c26.4-26.4,61.6-41,99-41h215.3
	c37.4,0,72.6,14.6,99,41C465.6,45.2,512,80,512,148.4L512,148.4z M472,148.4c0-50.1-34.6-74.9-37.7-79.1
	c-18.9-18.9-44-29.3-70.7-29.3H148.4c-26.7,0-51.8,10.4-70.7,29.3C74.5,73.7,40,98,40,148.4v215.3c0,50.1,34.6,74.8,37.7,79.1
	c18.9,18.9,44,29.3,70.7,29.3h215.3c26.7,0,51.8-10.4,70.7-29.3c3.2-4.4,37.7-28.7,37.7-79.1V148.4z"/>
</svg>
